wwwroot/images/river.svg

<svg xmlns="http://www.w3.org/2000/svg" preserveAspectRatio="xMidYMid" width="382.904" height="906.562" viewBox="0 0 382.904 906.562"><defs><style>.cls-1 { stroke: #fbfaf8; stroke-width: 4px; fill: none; fill-rule: evenodd; }</style></defs><path d="M6.093-19.878c.707 2.304 1.485 5.737 2.14 7.85.657 2.115-.9 7.493 2.142 11.42 3.042 3.93 4.196 2.583 5.708 4.998 1.512 2.414 1.862 6.426 4.995 9.992 3.134 3.566 4.728 3.744 11.417 7.138 6.69 3.393 14.61 3.464 15.7 4.996 1.088 1.53 4.093 5.847 6.42 8.565 2.33 2.72 1.743 8.11 4.996 7.852 3.254-.258 6.18-1.483 7.85 0 1.672 1.484 4.995 3.57 4.995 3.57s3.25 2.222 5.71 2.854c2.458.632 6.41 5.32 10.703 7.85 4.29 2.533 6.737 2.586 12.13 4.997 5.393 2.41 11.06 6.246 12.845 8.566 1.784 2.318 4.995 4.816 7.135 6.422 2.14 1.606 8.563 3.747 10.704 4.283 2.14.535 7.492 3.747 8.563 4.996 1.07 1.25 1.427 6.96 2.854 8.566 1.426 1.606 1.07 3.212 1.426 4.996.357 1.785-.892 4.104 0 5.71.892 1.606 3.21 5.175 4.282 7.138 1.07 1.963 2.14 3.212 2.14 5.71 0 2.498-1.427 3.57-1.427 5.71s1.785 4.818 2.142 6.424c.357 1.606-.238 6.66 2.14 9.28 2.38 2.616 4.52 6.66 7.85 6.422 3.33-.238 3.568-.238 7.136 2.142s5.47 2.38 5.708 4.282c.238 1.903 0 3.57 2.855 5.71s7.136 4.045 8.564 6.424c1.427 2.38 7.135 7.613 8.562 7.85 1.428.24 2.38 2.38 2.14 3.57-.237 1.19-.95 2.855-.712 6.424.237 3.568-3.093 7.375-3.568 10.706-.476 3.33-.476 6.9-2.14 9.28-1.666 2.378-3.093 5.233-6.423 4.995-3.33-.24-9.04-.953-12.13 1.426-3.093 2.38-6.9 5.473-6.423 7.852.476 2.38 2.14 4.996 2.14 4.996s-1.426.714-.713 2.14c.714 1.43 3.092 3.332 3.568 4.998.476 1.665 1.665.237.713 2.855-.95 2.617-.237 3.092-2.14 7.137s-1.903 4.758-2.854 5.71c-.952.952.237 1.19-.714 2.855-.95 1.664-.95 1.19-2.854 2.854-1.903 1.666-2.617 1.903-4.282 2.855-1.665.95-2.14.237-2.14 2.14 0 1.904-.238 2.617.713 4.283.95 1.665 1.903 3.093.714 6.424-1.19 3.33-2.14 2.617-2.854 4.996-.713 2.38-2.14 1.903-1.427 4.996.713 3.092.237 7.375.713 9.278.475 1.903.238 4.996 3.568 8.565 3.33 3.57 7.85 12.848 12.13 14.99 4.283 2.14 6.9 2.14 12.132 6.423 5.233 4.282 6.66 3.568 7.85 8.565 1.19 4.997 3.805 10.23 4.994 12.134 1.19 1.904 2.617 6.186 4.995 4.997 2.38-1.19 2.856-4.282 4.283-4.282 1.427 0 5.708-.714 7.136.714 1.426 1.427 1.188 1.903 3.566 2.855 2.38.952 2.617.238 2.855 2.855.24 2.617-1.664 9.04-2.854 13.56-1.19 4.522-4.52 14.276-2.854 17.13 1.665 2.856 3.568 3.808 8.563 5.71 4.995 1.905 9.514 2.856 11.417 4.284 1.903 1.427 2.855 2.617 4.282 4.282 1.427 1.666 6.66 5.948 8.562 7.138 1.903 1.19 7.374 2.14 8.563 5.71 1.19 3.57 3.567 9.28 3.567 12.134 0 2.855-2.378 4.52 0 7.85 2.38 3.332 2.617 5.235 5.71 6.425 3.09 1.19 7.135 3.568 9.275 4.996 2.14 1.428 3.568 6.187 3.568 9.993 0 3.807-1.665 10.707-3.568 11.42-1.903.714-4.498-.713-6.422 1.428-1.924 2.142-4.863 4.042-4.995 7.14-.132 3.095-2.314 10.71-2.854 14.274-.54 3.563.23 4.5-.713 8.565-.944 4.065-1.623 6.224-2.854 8.564-1.23 2.34-.943 3.492-2.854 5.71-1.913 2.217-3.316 1.334-2.856 3.568.46 2.235 1.187 2.416 1.428 4.283.24 1.867-2.01 6.867-4.996 11.42-2.986 4.553-4.837 6.067-2.854 7.85 1.983 1.786 3.99 4.45 2.14 7.14-1.848 2.686-3.337 4.346-4.994 6.423-1.658 2.076-3.508 3.025-2.854 4.282.653 1.257 3.62 2.678 1.427 4.996-2.193 2.318-1.928 1.862-4.28 4.283-2.353 2.42-4.86 3.132-4.996 4.995-.136 1.863.892 4.162 0 5.71s-1.176 3.937-1.427 5.71c-.25 1.773 4.487 1.014.714 4.283-3.772 3.268-1.866 1.676-4.994 4.996-3.13 3.32-4.665 4.933-5.71 6.424-1.043 1.49 0 4.282 0 4.282s2.488 2.846-.712 3.57c-3.2.722-3.776.635-5.71 2.854-1.932 2.22.568 1.32-1.426 7.138-1.994 5.816-4.417 8.86-3.568 11.42.85 2.56.925 4.613 2.14 5.71 1.216 1.096 1.76 3.205 1.428 4.996-.333 1.79-1.02 2.562.713 4.996 1.734 2.434 2.95 1.816 2.856 5.71-.094 3.894.675 3.297.713 5.71.037 2.414-.756 5.544 0 6.424 2.718 3.168 3.654 3.578 3.567 5.71-.086 2.132-.737 3.37-.713 4.996.023 1.627 0 3.57 0 3.57-.363 4.49-3.09 5.443-1.428 6.423 1.663.98 4.282 2.855 4.282 2.855l3.568 4.996s4.358 3.985 4.28 5.71c-.076 1.725 0 7.85 0 7.85s-3.644 2.98-3.567 4.284c.076 1.304 2.067 2.492 0 4.282-2.068 1.79-2.516 3.817-4.996 5.71-2.48 1.893-7.61 5.446-9.276 9.993-1.665 4.546-1.983 9.417-2.14 12.134-.16 2.717-.99 2.438 0 4.997.99 2.558 1.91 3.24 0 5.71-1.91 2.47-3.444 4.564-3.57 5.71-.123 1.146-2.88 1.414-1.426 2.855 1.453 1.44 2.564.51 2.854 3.57.29 3.057-.524 4.114.714 5.71 1.24 1.594 2.272 1.382 3.568 3.568 1.296 2.185 2.11 2.43 2.14 5.71.032 3.28-1.164 5.023 1.428 4.282 2.59-.74 5.026-2.48 6.422-2.14 1.395.338 2.69 7.043 3.568 7.85.878.807 2.028 1.63 3.568 3.57 1.54 1.937 1.525 2.92 1.427 5.71-.098 2.788 3.565 5.324 4.996 7.136 1.43 1.813 7.803 6.11 10.703 7.138 2.9 1.027 7.012 3.046 9.276 2.855 2.264-.19 6.422-2.854 6.422-2.854s4.488 2.003 8.563 2.855c4.076.853 6.86.663 11.418.715 4.56.052 8.043-.505 9.276 0 1.234.504.926.49 1.428 2.855.5 2.366-2.143 4.654-.714 5.71 5.346 3.95 7.414 6.934 10.704 8.565 3.29 1.63 3.384 1.904 5.708 4.282 2.324 2.378 6.992 7.616 12.845 9.993 5.852 2.376 8.13-1.905 11.417 3.57 3.286 5.472 5.08 8.542 8.563 12.846 3.483 4.304 6.127 5.78 9.276 10.706 3.15 4.928 28.154 27.218 37.82 45.68" class="cls-1"/></svg>

<svg xmlns="http://www.w3.org/2000/svg" xmlns:xlink="http://www.w3.org/1999/xlink" preserveAspectRatio="xMidYMid" width="382.904" height="906.562" viewBox="0 0 382.904 906.562">
  <defs>
    <style>
      .cls-1 {
        stroke: #fbfaf8;
        stroke-width: 4px;
        fill: none;
        fill-rule: evenodd;
      }
    </style>
  </defs>
  <path d="M6.093,-19.878 C6.800,-17.574 7.578,-14.141 8.234,-12.027 C8.890,-9.913 7.333,-4.535 10.375,-0.607 C13.417,3.321 14.571,1.975 16.083,4.390 C17.595,6.804 17.945,10.816 21.078,14.382 C24.212,17.948 25.806,18.126 32.495,21.520 C39.185,24.913 47.105,24.984 48.194,26.516 C49.283,28.047 52.288,32.363 54.616,35.081 C56.944,37.799 56.358,43.190 59.611,42.932 C62.864,42.674 65.789,41.449 67.460,42.932 C69.132,44.416 72.455,46.501 72.455,46.501 C72.455,46.501 75.705,48.724 78.164,49.356 C80.623,49.988 84.576,54.676 88.868,57.207 C93.159,59.739 95.605,59.792 100.998,62.203 C106.391,64.614 112.059,68.449 113.843,70.769 C115.627,73.088 118.838,75.586 120.978,77.192 C123.119,78.798 129.541,80.939 131.682,81.475 C133.823,82.010 139.174,85.222 140.245,86.471 C141.315,87.720 141.672,93.430 143.099,95.036 C144.526,96.642 144.170,98.248 144.526,100.032 C144.883,101.817 143.634,104.136 144.526,105.742 C145.418,107.348 147.737,110.917 148.808,112.880 C149.878,114.843 150.948,116.092 150.948,118.590 C150.948,121.088 149.521,122.159 149.521,124.300 C149.521,126.441 151.305,129.118 151.662,130.724 C152.019,132.330 151.424,137.385 153.803,140.003 C156.181,142.620 158.322,146.664 161.652,146.426 C164.982,146.188 165.220,146.188 168.788,148.568 C172.356,150.947 174.258,150.947 174.496,152.850 C174.734,154.753 174.496,156.419 177.351,158.560 C180.205,160.701 184.486,162.605 185.914,164.984 C187.341,167.363 193.049,172.597 194.476,172.835 C195.904,173.073 196.855,175.214 196.617,176.404 C196.379,177.593 195.666,179.259 195.904,182.828 C196.141,186.396 192.811,190.203 192.336,193.534 C191.860,196.865 191.860,200.433 190.195,202.813 C188.530,205.192 187.103,208.047 183.773,207.809 C180.443,207.571 174.734,206.857 171.642,209.236 C168.550,211.616 164.744,214.709 165.220,217.088 C165.696,219.467 167.361,222.084 167.361,222.084 C167.361,222.084 165.934,222.798 166.647,224.225 C167.361,225.653 169.739,227.556 170.215,229.222 C170.691,230.887 171.880,229.459 170.928,232.077 C169.977,234.694 170.691,235.169 168.788,239.214 C166.885,243.259 166.885,243.972 165.934,244.924 C164.982,245.876 166.171,246.114 165.220,247.779 C164.269,249.444 164.269,248.969 162.366,250.634 C160.463,252.300 159.749,252.537 158.084,253.489 C156.419,254.441 155.943,253.727 155.943,255.630 C155.943,257.534 155.706,258.247 156.657,259.913 C157.608,261.578 158.560,263.006 157.371,266.337 C156.181,269.668 155.230,268.954 154.516,271.333 C153.803,273.712 152.376,273.236 153.089,276.329 C153.803,279.422 153.327,283.705 153.803,285.608 C154.278,287.511 154.041,290.604 157.371,294.173 C160.701,297.742 165.220,307.021 169.501,309.162 C173.783,311.303 176.399,311.303 181.632,315.586 C186.865,319.868 188.292,319.154 189.481,324.151 C190.671,329.147 193.287,334.381 194.476,336.284 C195.666,338.188 197.093,342.470 199.471,341.281 C201.850,340.091 202.326,336.998 203.753,336.998 C205.180,336.998 209.461,336.284 210.889,337.712 C212.316,339.139 212.078,339.615 214.456,340.567 C216.835,341.519 217.073,340.805 217.311,343.422 C217.549,346.039 215.646,352.463 214.456,356.983 C213.267,361.504 209.937,371.258 211.602,374.113 C213.267,376.968 215.170,377.920 220.165,379.823 C225.160,381.727 229.679,382.678 231.582,384.106 C233.485,385.533 234.437,386.723 235.864,388.388 C237.291,390.054 242.524,394.336 244.426,395.526 C246.329,396.715 251.800,397.667 252.989,401.236 C254.179,404.805 256.557,410.515 256.557,413.370 C256.557,416.225 254.179,417.890 256.557,421.221 C258.936,424.552 259.174,426.455 262.266,427.645 C265.358,428.834 269.402,431.213 271.542,432.641 C273.683,434.068 275.110,438.827 275.110,442.633 C275.110,446.440 273.445,453.340 271.542,454.054 C269.639,454.767 267.044,453.340 265.120,455.481 C263.196,457.622 260.257,459.522 260.125,462.619 C259.993,465.715 257.811,473.330 257.271,476.894 C256.731,480.457 257.501,481.393 256.557,485.459 C255.613,489.525 254.934,491.684 253.703,494.024 C252.472,496.364 252.760,497.516 250.849,499.734 C248.937,501.951 247.534,501.068 247.994,503.302 C248.454,505.537 249.181,505.718 249.422,507.585 C249.662,509.452 247.413,514.452 244.426,519.005 C241.440,523.558 239.589,525.072 241.572,526.856 C243.555,528.641 245.562,531.306 243.713,533.994 C241.864,536.681 240.375,538.341 238.718,540.418 C237.060,542.494 235.210,543.443 235.864,544.700 C236.517,545.957 239.484,547.378 237.291,549.696 C235.097,552.014 235.362,551.558 233.009,553.979 C230.657,556.400 228.151,557.112 228.014,558.975 C227.878,560.838 228.906,563.137 228.014,564.685 C227.122,566.233 226.838,568.622 226.587,570.395 C226.336,572.168 231.074,571.409 227.301,574.678 C223.528,577.946 225.434,576.354 222.306,579.674 C219.177,582.994 217.641,584.607 216.597,586.098 C215.553,587.588 216.597,590.380 216.597,590.380 C216.597,590.380 219.084,593.226 215.884,593.949 C212.683,594.672 212.108,594.585 210.175,596.804 C208.242,599.023 210.742,598.125 208.748,603.942 C206.754,609.758 204.331,612.802 205.180,615.362 C206.029,617.921 206.105,619.975 207.321,621.072 C208.536,622.168 209.080,624.277 208.748,626.068 C208.415,627.859 207.729,628.630 209.461,631.064 C211.194,633.498 212.410,632.880 212.316,636.774 C212.222,640.668 212.991,640.071 213.029,642.484 C213.067,644.898 212.274,648.028 213.029,648.908 C215.748,652.076 216.684,652.486 216.597,654.618 C216.511,656.750 215.860,657.988 215.884,659.614 C215.907,661.241 215.884,663.183 215.884,663.183 C215.521,667.673 212.794,668.627 214.456,669.607 C216.119,670.586 218.738,672.462 218.738,672.462 L222.306,677.458 C222.306,677.458 226.664,681.443 226.587,683.168 C226.510,684.893 226.587,691.019 226.587,691.019 C226.587,691.019 222.942,693.998 223.019,695.302 C223.096,696.606 225.087,697.794 223.019,699.584 C220.952,701.374 220.504,703.401 218.024,705.294 C215.544,707.187 210.413,710.740 208.748,715.287 C207.083,719.833 206.765,724.704 206.607,727.421 C206.449,730.137 205.618,729.858 206.607,732.417 C207.597,734.975 208.517,735.657 206.607,738.127 C204.697,740.597 203.164,742.691 203.039,743.837 C202.915,744.983 200.159,745.251 201.612,746.692 C203.065,748.132 204.176,747.202 204.466,750.261 C204.757,753.319 203.942,754.376 205.180,755.971 C206.419,757.566 207.452,757.354 208.748,759.540 C210.044,761.725 210.857,761.969 210.889,765.250 C210.920,768.530 209.724,770.273 212.316,769.532 C214.907,768.791 217.342,767.052 218.738,767.391 C220.133,767.730 221.428,774.435 222.306,775.242 C223.184,776.049 224.334,776.873 225.874,778.811 C227.413,780.749 227.399,781.732 227.301,784.521 C227.202,787.310 230.865,789.846 232.296,791.658 C233.727,793.471 240.099,797.769 242.999,798.796 C245.900,799.823 250.012,801.842 252.276,801.651 C254.540,801.459 258.698,798.796 258.698,798.796 C258.698,798.796 263.186,800.799 267.261,801.651 C271.336,802.503 274.119,802.313 278.678,802.365 C283.237,802.417 286.721,801.860 287.954,802.365 C289.188,802.869 288.880,802.854 289.382,805.220 C289.883,807.586 287.239,809.874 288.668,810.930 C294.014,814.880 296.082,817.864 299.372,819.495 C302.662,821.126 302.756,821.399 305.080,823.777 C307.404,826.155 312.072,831.393 317.925,833.770 C323.777,836.146 326.055,831.865 329.342,837.339 C332.628,842.812 334.421,845.882 337.905,850.186 C341.388,854.490 344.032,855.965 347.181,860.892 C350.330,865.820 375.334,888.110 385.000,906.572 " class="cls-1"/>
</svg>
